X:1
T:Magi videntes stellam
T:Magi videntes stellam
T:Agostino Agazzari (1578-1640)
T:www.sangerforum.no
T:www.sangerforum.no
T:www.sangerforum.no
C:Agostino Agazzari (1578-1640)
Z:www.sangerforum.no
%%score [ 1 2 3 ]
L:1/8
Q:1/2=46
M:2/2
K:G
V:1 treble nm="I"
V:2 treble nm="II"
V:3 treble nm="III"
V:1
 d4 B2 B2 | B2 B2 (e3 d | cB c2) B4 | z8 | z8 | d4 B2 B2 | B2 B2 e4 | d B d2 c B A3/2 A/ | %8
w: Ma- gi vi-|den- tes stel- *|* * * lam,|||Ma- gi vi-|den- tes stel-|lam di- xe- runt ad in- vi-|
 G2 z2 z4 | z B d2 G2 z B | d2 B A (B/G/ c2) B | c4 c4 | d4 e4 | z4 c4 d4 | e4 =f3 e d2 c2 | %15
w: cem,|di- xe- runt, di-|xe- runt ad in- * * vi-|cem, hoc|si- gnum,|hoc si-|gnum ma- gni re- gis|
 d4 z2 B2 A2 G2 | z4 z2 B2 | A2 G2 z4 | z2 e2 d2 c2 | z2 e2 d4 | c4 z2 d2 d2 c2 | B4 B2 B2 | %22
w: est. E- a- mus,|e-|a- mus,|e- a- mus,|e- a-|mus, Et re- qui-|ra- mus et|
 e3 d c2 B2 | (AB c4 B2) | c4 z4 | z4 z4 z2 d2 | e3 d c2 B2 A4 | B4 z2 e4 d2 | B2 A2 B4 | %29
w: of- fe- ra- mus|e- * * *|i,|et|of- fe- ra- mus e-|i au- rum|thus et myr-|
 A2 c4 B2 | e2 e2 d4 | c2 e4 d2 | c2 B2 A4 | B2 d d c A B B | A2 d2 z2 g g | =f d e e d2 c2 | %36
w: rham, au- rum|thus et myr-|rham, au- rum|thus et myr-|rham, Al- le- lu- ia, al- le-|lu- ia, al- le-|lu- ia, al- le- lu- ia,|
 z2 c c B d e e | c d B3/2 c/ A4 | G2 d d c A B B | A2 d2 z2 g g | =f d e e d2 c2 | %41
w: al- le- lu- ia, al- le-|lu- ia, al- le- lu-|ia, al- le- lu- ia, al- le-|lu- ia, al- le-|lu- ia, al- le- lu- ia,|
 z2 c c B d e e | c d B3/2 c/ A4 | G2 d d c A B B e4 | d12 |] %45
w: al- le- lu- ia, al- le-|lu- ia, al- le- lu-|ia, al- le- lu- ia, al- le- lu-|ia.|
V:2
 z8 | z8 | z4 d4 | B2 B2 B2 B2 | (e3 d cB c2) | B4 z2 d2 | d2 G2 c4 | B G G2 A G G3/2 F/ | %8
w: ||Ma-|gi vi- den- tes|stel- * * * *|lam, vi-|den- tes stel-|lam di- xe- runt ad in- vi-|
 G B d2 c B A3/2 A/ | G2 z B d2 G2 | z B d2 d c d3/2 d/ | e4 z4 | z4 c4 | d4 e A c4 B2 | %14
w: cem, di- xe- runt ad in- vi-|cem, di- xe- runt,|di- xe- runt ad in- vi-|cem,|hoc|si- gnum, hoc si- *|
 c4 c3 c B2 c2 | B4 z4 z2 B2 | A2 G2 z4 | z2 B2 A2 c2 | z4 z2 e2 | d2 c c (B c2 B) | %20
w: gnum ma- gni re- gis|est. E-|a- mus,|e- a- mus|e-|a- mus, e- a- * *|
 c4 z2 B2 B2 A2 | ^G4 G4 | z8 | z4 z2 d2 | e3 d c2 B2 | (ABcB dc c4 B2) | c2 c B A2 G2 G2 F2 | %27
w: mus, Et re- qui-|ra- mus||et|of- fe- ra- mus|e- * * * * * * *|i, of- fe- ra- mus e- *|
 G4 c6 B2 | ^G2 A2 A2 G2 | A2 e4 d2 | c A (c4 B2) | c2 c4 B2 | A G G4 F2 | G4 z2 d d | %34
w: i au- rum|thus et myr- *|rham, au- rum|thus et myr- *|rham, au- rum|thus et myr- *|rham, Al- le-|
 c A B B A2 G2 | z2 g g =f d e e | d2 c2 z2 c c | A A G E (F G2 F) | G4 z2 d d | c A B B A2 G2 | %40
w: lu- ia, al- le- lu- ia,|al- le- lu- ia, al- le-|lu- ia, al- le-|lu- ia, al- le- lu- * *|ia, al- le-|lu- ia, al- le- lu- ia,|
 z2 g g =f d e e | d2 c2 z2 c c | A A G E (=F G2 F) | G2 B B c e d d c4 | B12 |] %45
w: al- le- lu- ia, al- le-|lu- ia, al- le-|lu- ia, al- le- lu- * *|ia, al- le- lu- ia, al- le- lu-|ia.|
V:3
 z8 | z8 | z8 | G4 E2 E2 | E2 E2 A4 | G8 | z8 | z8 | z G B2 A G G3/2 F/ | G4 z B d2 | G3 =F G2 G2 | %11
w: |||Ma- gi vi-|den- tes stel-|lam|||di- xe- runt ad in- vi-|cem, di- xe-|runt ad in- vi-|
 C4 z4 | z8 | z4 A4 G4 | c4 A3 c G2 A2 | G4 z4 z4 | z2 B2 A2 G2 | z4 z2 e2 | d2 c2 z2 c2 | %19
w: cem,||hoc si-|gnum ma- gni re- gis|est.|E- a- mus,|e-|a- mus, e-|
 B2 c C G4 | C4 G4 G2 A2 | E4 E4 | z8 | z8 | z4 z2 G2 | A3 G =F2 E2 D4 | C2 E E =F2 G2 D4 | %27
w: a- mus, e- a-|mus, Et re- qui-|ra- mus|||et|of- fe- ra- mus e-|i, of- fe- ra- mus e-|
 G4 C6 D2 | E2 =F2 E4 | A4 z4 | z8 | z2 C4 D2 | =F2 G2 D4 | G2 G G A D z2 | z2 G G =F D E E | %35
w: i au- rum|thus et myr-|rham,||au- rum|thus et myr-|rham, Al- le- lu- ia,|al- le- lu- ia, al- le-|
 D2 C2 z2 c c | B G A A G G C C | =F D G G D4 | G2 G G A D z2 | z2 G G =F D E E | %40
w: lu- ia, al- le-|lu- ia, al- le- lu- ia, al- le-|lu- ia, al- le- lu-|ia, al- le- lu- ia,|al- le- lu- ia, al- le-|
"_\n\nVismennene så stjernen og sa:\nDette er tegnet på en stor konge.\nLa oss dra og se ham og gi ham gull, røkelse og myrra, halleluja.\n\n" D2 C2 z2 c c | %41
w: lu- ia, al- le-|
 B G A A G G C C | =F D G G D4 | G2 G G =F C G G C4 | G12 |] %45
w: lu- ia, al- le- lu- ia, al- le-|lu- ia, al- le- lu-|ia, al- le- lu- ia, al- le- lu-|ia.|

